src/status/24/strawberry-panel-grey.svg

<svg width="24" height="24" version="1.1" viewBox="0 0 24 24" xmlns="http://www.w3.org/2000/svg">
 <g id="surface1">
  <path transform="matrix(.158389 .0914476 -.0914476 .158389 9.737454 -1.437818)" d="m9.69519 34.382085c4.128163-2.802699 8.184297-3.936096 12.236454-4.17935-3.61634-3.017178-6.327324-7.370931-7.775236-13.637725-0.021359-0.036993-0.032038-0.05549-0.024221-0.084665-0.205209-0.868015 0.336706-1.723468 1.186224-1.917998 3.170391-0.745314 6.463419-0.722914 9.862681-0.046641 1.869346 0.375792 3.757957 0.913099 5.697871 1.667409-0.773302-1.723815-1.279065-3.454121-1.47248-5.241453-0.331897-3.137795 0.31883-6.325009 2.225443-9.472789 0.297271-0.467582 0.786001-0.774417 1.368749-0.790262 3.128652-0.006008 5.916969 1.491586 8.367601 3.899354 1.931749 1.893493 3.648798 4.354868 5.133977 7.09809 1.10058-2.707071 2.536403-5.089788 4.297558-6.994454 2.428358-2.585833 5.427671-4.268193 9.020832-4.665702 0.672369-0.116914 1.381175 0.213721 1.707275 0.863964 1.3393 2.704135 1.76368 5.788534 1.52637 9.008343-0.141618 2.104079-0.584905 4.28368-1.258737 6.448415 1.340341-0.625886 2.795292-1.095982 4.346356-1.399608 3.043776-0.622888 6.46628-0.675243 10.331587-0.046084l0.058352 0.015634c0.869551 0.139177 1.463957 0.955122 1.343277 1.813994-0.873939 6.004285-3.413414 10.4053-6.986468 13.528723 3.276067 0.377465 6.7274 1.442935 10.642337 3.695818 1.505906 0.856915 2.848204 1.857615 4.042529 2.943749 1.226364 1.141624 2.275578 2.360864 3.142688 3.734568 3.66276 5.703237 3.920819 13.668163 2.399362 21.797329-1.986659 10.74068-7.123887 21.919281-11.334128 28.296088-3.42082 5.181155-7.681248 10.403143-12.950614 15.714406-5.261549 5.282086-11.495043 10.632089-18.872675 16.050775-0.752637 0.533193-1.748803 0.516443-2.458376 0.013615-7.658659-5.319827-14.481341-10.900353-20.364883-16.776477-5.920536-5.854766-10.883435-12.01581-14.793353-18.488855-4.809066-7.902239-10.051519-20.314095-10.33485-31.569187-0.20982802-8.436695 2.306468-16.252397 9.688498-21.279024zm5.393583 21.942923c1.991489-2.5309 2.681166-4.112886 2.682839-5.519607 0.012352-1.388224-0.974323-2.840871-2.696254-2.83319-1.721932 0.00768-2.518401 1.404701-2.530753 2.792925 0.016824 1.396041 0.572911 2.530058 2.544168 5.559872zm39.177471 49.616543c1.99149-2.5309 2.681167-4.112886 2.693519-5.50111 0.001673-1.406721-0.985002-2.859368-2.706934-2.851687-1.721931 0.007681-2.5184 1.404701-2.520073 2.811422-0.012352 1.388224 0.572911 2.530058 2.533488 5.541375zm-15.239407-0.893676c1.99149-2.5309 2.699664-4.123565 2.68284-5.519607 0.012352-1.388224-0.974323-2.840871-2.696255-2.83319-1.73261-0.010816-2.529079 1.386204-2.530752 2.792925 0.016823 1.396041 0.591407 2.519379 2.544167 5.559872zm-7.781938-14.546362c2.009986-2.54158 2.710342-4.105069 2.712015-5.51179-0.016824-1.396042-0.99282-2.830192-2.706933-2.851687-1.721932 0.007681-2.536898 1.41538-2.520074 2.811422-0.001673 1.40672 0.572911 2.530058 2.514992 5.552055zm30.926499-1.91e-4c1.991489-2.5309 2.681167-4.112886 2.682839-5.519607 0.012353-1.388224-0.974323-2.840871-2.696254-2.83319s-2.518401 1.404701-2.530753 2.792925c0.016824 1.396042 0.583591 2.548555 2.544168 5.559872zm-15.694983-1.469164c2.009986-2.54158 2.710342-4.105069 2.712015-5.51179-0.016824-1.396042-0.99282-2.830192-2.706934-2.851687-1.721931 0.007681-2.536897 1.41538-2.520073 2.811422-0.001673 1.40672 0.572911 2.530058 2.514992 5.552055zm24.199288-13.873068c1.991489-2.530901 2.710342-4.105069 2.712015-5.51179-0.016823-1.396042-0.99282-2.830192-2.696254-2.83319-1.751107-1.37e-4 -2.547577 1.396883-2.549249 2.803604 0.016823 1.396041 0.591407 2.519379 2.533488 5.541376zm-14.660288-1.129387c2.009985-2.54158 2.710342-4.105069 2.712015-5.51179-0.016824-1.396042-0.99282-2.830192-2.696255-2.83319-1.73261-0.010816-2.547576 1.396883-2.530752 2.792925-0.001673 1.40672 0.572911 2.530058 2.514992 5.552055zm-17.481895 0.00645c1.991489-2.5309 2.699663-4.123566 2.682839-5.519607 0.012352-1.388225-0.974323-2.840871-2.696254-2.833191-1.721931 0.007681-2.518401 1.404701-2.530753 2.792925 0.016824 1.396042 0.602087 2.537876 2.544168 5.559873zm-15.243384-0.003535c2.009986-2.541579 2.710342-4.105069 2.712015-5.51179s-0.974323-2.840871-2.696254-2.83319c-1.732611-0.010816-2.52908 1.386204-2.530753 2.792925s0.572911 2.530058 2.514992 5.552055zm54.120542-17.707433c2.009986-2.541579 2.710342-4.105069 2.712015-5.511789 0.001673-1.406721-0.974323-2.840871-2.706934-2.851687-1.721931 0.00768-2.5184 1.4047-2.520073 2.811421s0.572911 2.530059 2.514992 5.552055zm-15.338729 0.002189c2.009986-2.541579 2.699663-4.123565 2.712015-5.51179 0.001673-1.40672-0.974323-2.84087-2.706933-2.851686-1.721932 0.00768-2.518401 1.4047-2.520074 2.811421s0.572911 2.530059 2.514992 5.552055zm-14.803653-0.010794c1.991489-2.530901 2.710342-4.105069 2.693519-5.501111 0.001673-1.406721-0.974324-2.840871-2.696255-2.83319-1.714114-0.021495-2.52908 1.386204-2.530752 2.792925 0.016823 1.396041 0.591407 2.519379 2.533488 5.541376zm-17.185181 0.007775c1.991489-2.5309 2.681167-4.112886 2.68284-5.519607 0.012352-1.388224-0.974324-2.840871-2.696255-2.83319-1.73261-0.010816-2.52908 1.386204-2.530753 2.792925-0.001672 1.406721 0.572911 2.530058 2.544168 5.559872zm-1.930392-25.940084c2.165292 0.204925 4.368346 0.560685 6.619072 0.913583 3.942155 0.634113 8.038007 1.278138 12.31366 1.251119 4.063604-0.052565 7.761463-0.140587 11.18948-0.738697 2.498789-0.456207 4.841577-1.438905 7.233016-1.611172 0.351436-0.202905 0.702871-0.40581 1.043628-0.627212 3.832985-2.459639 6.727736-6.202593 7.90851-11.71815-2.851971-0.326373-5.421327-0.248683-7.671074 0.211712-2.760603 0.558044-5.113303 1.694439-7.08518 3.276846-0.694286 0.548828-1.696175 0.436733-2.234323-0.239056-0.373005-0.475189-0.439384-1.102748-0.221823-1.622957 1.410624-3.280675 2.40497-6.641619 2.626645-9.803077l0.007817-0.029175c0.162208-2.239279-0.061918-4.378815-0.75914-6.269867-2.315916 0.473936-4.337002 1.714819-5.990039 3.507738-2.185809 2.322482-3.779305 5.585429-4.795567 9.378286-0.226704 0.846099-1.096045 1.348022-1.942144 1.121318-0.485309-0.114399-0.860408-0.465067-1.058357-0.893351-1.698974-3.754254-3.794194-7.255068-6.204971-9.636523-1.607185-1.587636-3.37358-2.639428-5.237202-2.919876-1.166192 2.251705-1.558945 4.476117-1.321277 6.681822 0.279827 2.748598 1.545141 5.49545 3.511999 8.133205 0.538149 0.675789 0.378381 1.68054-0.315904 2.229367-0.522861 0.375867-1.200954 0.397436-1.716208 0.103026-3.276488-1.659666-6.44751-2.837651-9.488845-3.449291-2.391649-0.468833-4.723411-0.577646-6.934071-0.26313 1.873544 6.662273 5.515083 10.577409 10.227678 12.887665 0.098207 0.041949 0.185734 0.065401 0.29462 0.125847zm34.996532 4.358097c-4.972379 1.810374-10.689441 2.373658-16.327771 2.176277-5.148066-0.159831-10.072078-0.572332-14.522438-1.702225-7.117922-1.094151-13.719823-1.721699-20.201243 2.686302-5.984873 4.07199-8.024866 10.576873-7.847496 17.675878 0.260994 10.404805 5.187257 22.012722 9.710847 29.463225 3.728371 6.158603 8.472731 12.026563 14.151274 17.675772 5.383155 5.35117 11.59447 10.470817 18.559959 15.401657 6.648447-4.973021 12.335628-9.859629 17.117033-14.691863 5.071627-5.098447 9.163492-10.099802 12.444925-15.052506 3.991911-6.02879 8.821956-16.586114 10.71062-26.727643 1.34033-7.161407 1.214263-14.043408-1.784292-18.724376-0.696243-1.077759-1.5191-2.033091-2.442258-2.905851-0.963012-0.899074-2.063319-1.694218-3.282422-2.39611-6.124693-3.517281-11.094841-3.582534-16.286738-2.878537z" style="fill:rgb(18.039216%,20.392157%,25.098041%);stroke-width:2.7915;stroke:rgb(18.039216%,20.392157%,25.098041%)"/>
 </g>
</svg>

<svg xmlns="http://www.w3.org/2000/svg" xmlns:xlink="http://www.w3.org/1999/xlink" width="24" height="24" viewBox="0 0 24 24" version="1.1">
<g id="surface1">
<path style="fill-rule:nonzero;fill:rgb(18.039216%,20.392157%,25.098041%);fill-opacity:1;stroke-width:2.7915;stroke-linecap:butt;stroke-linejoin:miter;stroke:rgb(18.039216%,20.392157%,25.098041%);stroke-opacity:1;stroke-miterlimit:4;" d="M 9.69519 34.382085 C 13.823353 31.579386 17.879487 30.445989 21.931644 30.202735 C 18.315304 27.185557 15.60432 22.831804 14.156408 16.56501 C 14.135049 16.528017 14.12437 16.50952 14.132187 16.480345 C 13.926978 15.61233 14.468893 14.756877 15.318411 14.562347 C 18.488802 13.817033 21.78183 13.839433 25.181092 14.515706 C 27.050438 14.891498 28.939049 15.428805 30.878963 16.183115 C 30.105661 14.4593 29.599898 12.728994 29.406483 10.941662 C 29.074586 7.803867 29.725313 4.616653 31.631926 1.468873 C 31.929197 1.001291 32.417927 0.694456 33.000675 0.678611 C 36.129327 0.672603 38.917644 2.170197 41.368276 4.577965 C 43.300025 6.471458 45.017074 8.932833 46.502253 11.676055 C 47.602833 8.968984 49.038656 6.586267 50.799811 4.681601 C 53.228169 2.095768 56.227482 0.413408 59.820643 0.015899 C 60.493012 -0.101015 61.201818 0.22962 61.527918 0.879863 C 62.867218 3.583998 63.291598 6.668397 63.054288 9.888206 C 62.91267 11.992285 62.469383 14.171886 61.795551 16.336621 C 63.135892 15.710735 64.590843 15.240639 66.141907 14.937013 C 69.185683 14.314125 72.608187 14.26177 76.473494 14.890929 L 76.531846 14.906563 C 77.401397 15.04574 77.995803 15.861685 77.875123 16.720557 C 77.001184 22.724842 74.461709 27.125857 70.888655 30.24928 C 74.164722 30.626745 77.616055 31.692215 81.530992 33.945098 C 83.036898 34.802013 84.379196 35.802713 85.573521 36.888847 C 86.799885 38.030471 87.849099 39.249711 88.716209 40.623415 C 92.378969 46.326652 92.637028 54.291578 91.115571 62.420744 C 89.128912 73.161424 83.991684 84.340025 79.781443 90.716832 C 76.360623 95.897987 72.100195 101.119975 66.830829 106.431238 C 61.56928 111.713324 55.335786 117.063327 47.958154 122.482013 C 47.205517 123.015206 46.209351 122.998456 45.499778 122.495628 C 37.841119 117.175801 31.018437 111.595275 25.134895 105.719151 C 19.214359 99.864385 14.25146 93.703341 10.341542 87.230296 C 5.532476 79.328057 0.290023 66.916201 0.00669202 55.661109 C -0.203136 47.224414 2.31316 39.408712 9.69519 34.382085 Z M 15.088773 56.325008 C 17.080262 53.794108 17.769939 52.212122 17.771612 50.805401 C 17.783964 49.417177 16.797289 47.96453 15.075358 47.972211 C 13.353426 47.979891 12.556957 49.376912 12.544605 50.765136 C 12.561429 52.161177 13.117516 53.295194 15.088773 56.325008 Z M 54.266244 105.941551 C 56.257734 103.410651 56.947411 101.828665 56.959763 100.440441 C 56.961436 99.03372 55.974761 97.581073 54.252829 97.588754 C 52.530898 97.596435 51.734429 98.993455 51.732756 100.400176 C 51.720404 101.7884 52.305667 102.930234 54.266244 105.941551 Z M 39.026837 105.047875 C 41.018327 102.516975 41.726501 100.92431 41.709677 99.528268 C 41.722029 98.140044 40.735354 96.687397 39.013422 96.695078 C 37.280812 96.684262 36.484343 98.081282 36.48267 99.488003 C 36.499493 100.884044 37.074077 102.007382 39.026837 105.047875 Z M 31.244899 90.501513 C 33.254885 87.959933 33.955241 86.396444 33.956914 84.989723 C 33.94009 83.593681 32.964094 82.159531 31.249981 82.138036 C 29.528049 82.145717 28.713083 83.553416 28.729907 84.949458 C 28.728234 86.356178 29.302818 87.479516 31.244899 90.501513 Z M 62.171398 90.501322 C 64.162887 87.970422 64.852565 86.388436 64.854237 84.981715 C 64.86659 83.593491 63.879914 82.140844 62.157983 82.148525 C 60.436052 82.156206 59.639582 83.553226 59.62723 84.94145 C 59.644054 86.337492 60.210821 87.490005 62.171398 90.501322 Z M 46.476415 89.032158 C 48.486401 86.490578 49.186757 84.927089 49.18843 83.520368 C 49.171606 82.124326 48.19561 80.690176 46.481496 80.668681 C 44.759565 80.676362 43.944599 82.084061 43.961423 83.480103 C 43.95975 84.886823 44.534334 86.010161 46.476415 89.032158 Z M 70.675703 75.15909 C 72.667192 72.628189 73.386045 71.054021 73.387718 69.6473 C 73.370895 68.251258 72.394898 66.817108 70.691464 66.81411 C 68.940357 66.813973 68.143887 68.210993 68.142215 69.617714 C 68.159038 71.013755 68.733622 72.137093 70.675703 75.15909 Z M 56.015415 74.029703 C 58.0254 71.488123 58.725757 69.924634 58.72743 68.517913 C 58.710606 67.121871 57.73461 65.687721 56.031175 65.684723 C 54.298565 65.673907 53.483599 67.081606 53.500423 68.477648 C 53.49875 69.884368 54.073334 71.007706 56.015415 74.029703 Z M 38.53352 74.036153 C 40.525009 71.505253 41.233183 69.912587 41.216359 68.516546 C 41.228711 67.128321 40.242036 65.675675 38.520105 65.683355 C 36.798174 65.691036 36.001704 67.088056 35.989352 68.47628 C 36.006176 69.872322 36.591439 71.014156 38.53352 74.036153 Z M 23.290136 74.032618 C 25.300122 71.491039 26.000478 69.927549 26.002151 68.520828 C 26.003824 67.114107 25.027828 65.679957 23.305897 65.687638 C 21.573286 65.676822 20.776817 67.073842 20.775144 68.480563 C 20.773471 69.887284 21.348055 71.010621 23.290136 74.032618 Z M 77.410678 56.325185 C 79.420664 53.783606 80.12102 52.220116 80.122693 50.813396 C 80.124366 49.406675 79.14837 47.972525 77.415759 47.961709 C 75.693828 47.969389 74.897359 49.366409 74.895686 50.77313 C 74.894013 52.179851 75.468597 53.303189 77.410678 56.325185 Z M 62.071949 56.327374 C 64.081935 53.785795 64.771612 52.203809 64.783964 50.815584 C 64.785637 49.408864 63.809641 47.974714 62.077031 47.963898 C 60.355099 47.971578 59.55863 49.368598 59.556957 50.775319 C 59.555284 52.18204 60.129868 53.305378 62.071949 56.327374 Z M 47.268296 56.31658 C 49.259785 53.785679 49.978638 52.211511 49.961815 50.815469 C 49.963488 49.408748 48.987491 47.974598 47.26556 47.982279 C 45.551446 47.960784 44.73648 49.368483 44.734808 50.775204 C 44.751631 52.171245 45.326215 53.294583 47.268296 56.31658 Z M 30.083115 56.324355 C 32.074604 53.793455 32.764282 52.211469 32.765955 50.804748 C 32.778307 49.416524 31.791631 47.963877 30.0697 47.971558 C 28.33709 47.960742 27.54062 49.357762 27.538947 50.764483 C 27.537275 52.171204 28.111858 53.294541 30.083115 56.324355 Z M 28.152723 30.384271 C 30.318015 30.589196 32.521069 30.944956 34.771795 31.297854 C 38.71395 31.931967 42.809802 32.575992 47.085455 32.548973 C 51.149059 32.496408 54.846918 32.408386 58.274935 31.810276 C 60.773724 31.354069 63.116512 30.371371 65.507951 30.199104 C 65.859387 29.996199 66.210822 29.793294 66.551579 29.571892 C 70.384564 27.112253 73.279315 23.369299 74.460089 17.853742 C 71.608118 17.527369 69.038762 17.605059 66.789015 18.065454 C 64.028412 18.623498 61.675712 19.759893 59.703835 21.3423 C 59.009549 21.891128 58.00766 21.779033 57.469512 21.103244 C 57.096507 20.628055 57.030128 20.000496 57.247689 19.480287 C 58.658313 16.199612 59.652659 12.838668 59.874334 9.67721 L 59.882151 9.648035 C 60.044359 7.408756 59.820233 5.26922 59.123011 3.378168 C 56.807095 3.852104 54.786009 5.092987 53.132972 6.885906 C 50.947163 9.208388 49.353667 12.471335 48.337405 16.264192 C 48.110701 17.110291 47.24136 17.612214 46.395261 17.38551 C 45.909952 17.271111 45.534853 16.920443 45.336904 16.492159 C 43.63793 12.737905 41.54271 9.237091 39.131933 6.855636 C 37.524748 5.268 35.758353 4.216208 33.894731 3.93576 C 32.728539 6.187465 32.335786 8.411877 32.573454 10.617582 C 32.853281 13.36618 34.118595 16.113032 36.085453 18.750787 C 36.623602 19.426576 36.463834 20.431327 35.769549 20.980154 C 35.246688 21.356021 34.568595 21.37759 34.053341 21.08318 C 30.776853 19.423514 27.605831 18.245529 24.564496 17.633889 C 22.172847 17.165056 19.841085 17.056243 17.630425 17.370759 C 19.503969 24.033032 23.145508 27.948168 27.858103 30.258424 C 27.95631 30.300373 28.043837 30.323825 28.152723 30.384271 Z M 63.149255 34.742368 C 58.176876 36.552742 52.459814 37.116026 46.821484 36.918645 C 41.673418 36.758814 36.749406 36.346313 32.299046 35.21642 C 25.181124 34.122269 18.579223 33.494721 12.097803 37.902722 C 6.11293 41.974712 4.072937 48.479595 4.250307 55.5786 C 4.511301 65.983405 9.437564 77.591322 13.961154 85.041825 C 17.689525 91.200428 22.433885 97.068388 28.112428 102.717597 C 33.495583 108.068767 39.706898 113.188414 46.672387 118.119254 C 53.320834 113.146233 59.008015 108.259625 63.78942 103.427391 C 68.861047 98.328944 72.952912 93.327589 76.234345 88.374885 C 80.226256 82.346095 85.056301 71.788771 86.944965 61.647242 C 88.285295 54.485835 88.159228 47.603834 85.160673 42.922866 C 84.46443 41.845107 83.641573 40.889775 82.718415 40.017015 C 81.755403 39.117941 80.655096 38.322797 79.435993 37.620905 C 73.3113 34.103624 68.341152 34.038371 63.149255 34.742368 Z M 63.149255 34.742368 " transform="matrix(0.158389,0.0914476,-0.0914476,0.158389,9.737454,-1.437818)"/>
</g>
</svg>
